modules/hawcons-filled/icons/icon-29-information.svg

<?xml version="1.0" encoding="UTF-8" standalone="no"?>
<svg width="32px" height="32px" viewBox="0 0 32 32" version="1.1" xmlns="http://www.w3.org/2000/svg" xmlns:xlink="http://www.w3.org/1999/xlink" xmlns:sketch="http://www.bohemiancoding.com/sketch/ns">
    <!-- Generator: Sketch 3.0.3 (7891) - http://www.bohemiancoding.com/sketch -->
    <title>icon 29 information</title>
    <desc>Created with Sketch.</desc>
    <defs></defs>
    <g id="Page-1" stroke="none" stroke-width="1" fill="none" fill-rule="evenodd" sketch:type="MSPage">
        <g id="icon-29-information" sketch:type="MSArtboardGroup" fill="#929292">
            <path d="M17.5,28 C24.4035597,28 30,22.4035597 30,15.5 C30,8.59644029 24.4035597,3 17.5,3 C10.5964403,3 5,8.59644029 5,15.5 C5,22.4035597 10.5964403,28 17.5,28 L17.5,28 Z M18,21 L18,14.75 L18,14 L15,14 L15,15 L17,15 L17,21 L15,21 L15,22 L20,22 L20,21 L18,21 L18,21 L18,21 Z M17.5,12 C18.3284272,12 19,11.3284272 19,10.5 C19,9.67157283 18.3284272,9 17.5,9 C16.6715728,9 16,9.67157283 16,10.5 C16,11.3284272 16.6715728,12 17.5,12 L17.5,12 Z" id="information" sketch:type="MSShapeGroup"></path>
        </g>
    </g>
</svg>

<svg width="32" height="32" viewBox="0 0 32 32" xmlns="http://www.w3.org/2000/svg"><path d="M17.5 28C24.404 28 30 22.404 30 15.5S24.404 3 17.5 3 5 8.596 5 15.5 10.596 28 17.5 28zm.5-7v-7h-3v1h2v6h-2v1h5v-1h-2zm-.5-9a1.5 1.5 0 1 0 0-3 1.5 1.5 0 0 0 0 3z" fill="#929292" fill-rule="evenodd"/></svg>
